icon-svg/vtmgo.svg

<svg xmlns="http://www.w3.org/2000/svg" fill="#44739e" viewBox="0 0 24 24"><path d="M21.911 5.521a4.658 4.658 0 0 0-2.941-3.295c-.71-.245-.55-.241-7-.236-5.158 0-6.095.015-6.395.08A4.6 4.6 0 0 0 2.044 5.8C2 6.067 1.993 7.845 2 12.2c.015 5.579.025 6.054.1 6.335a4.58 4.58 0 0 0 1.167 2.055 4.374 4.374 0 0 0 2.868 1.378c.371.04 2.316.049 6.25.04 5.684-.02 5.71-.02 6.12-.131a4.53 4.53 0 0 0 1.457-.641 4.6 4.6 0 0 0 1.953-2.815c.081-.316.085-.81.085-6.444 0-5.67 0-6.135-.089-6.456m-4.265 12.384a3.616 3.616 0 0 1-4.1 2.024 13.7 13.7 0 0 1-1.426-.649c-.192-.064-.373.113-.523.208a3.66 3.66 0 0 1-1 .426 3.6 3.6 0 0 1-2.467-6.722 4.011 4.011 0 0 1 3.376.1 3.47 3.47 0 0 1-.827 1.42c-.2.1-.727-.183-.98-.183a1.977 1.977 0 0 0-1.881 1.663 1.945 1.945 0 0 0 1.263 2.022c.46.177 1.43.2 1.71-.315a1.48 1.48 0 0 0 .049-.661H9.223V15.67h3.234a3.8 3.8 0 0 0 .143 1.43 1.94 1.94 0 0 0 .48.709c1.793 1.691 4.378-1.145 2.519-2.792a1.966 1.966 0 0 0-.9-.446 3.36 3.36 0 0 0-1.332.2l-.808-1.379v-.052a3.584 3.584 0 0 1 5.094 4.565zM19.772 9.9v1.356h-1.748l-.015-1.318c-.015-1.407-.025-1.457-.286-1.6a.83.83 0 0 0-.723.053c-.336.21-.356.285-.371 1.643l-.016 1.217h-1.749V9.958c0-1.186-.01-1.3-.1-1.447-.245-.406-1.017-.275-1.253.21-.089.191-.1.311-.1 1.369v1.157h-1.373c-1.522 0-1.757-.035-2.233-.315a2.2 2.2 0 0 1-.812-.981 2.98 2.98 0 0 1-.14-.983l-.03-.7-.105.176c-.06.1-.421.716-.8 1.377a12.3 12.3 0 0 1-.812 1.312.446.446 0 0 1-.556.03c-.054-.05-.6-.957-1.206-2.018a12.85 12.85 0 0 1-1.1-2.081.417.417 0 0 1 .131-.289c.13-.131.145-.131.842-.131h.706l.395.681a4.17 4.17 0 0 0 .461.707c.11.044.22-.1.591-.757l.351-.632h2.03l.34-.592.341-.595.01.481a5.9 5.9 0 0 0 .04.59c.025.106.055.116.421.116h.4v1.6h-.866l.03.421c.055.776.24.976.927.976h.41v-3h1.6v.231c0 .125.016.22.04.21l.381-.19a1.535 1.535 0 0 1 .852-.191 1.565 1.565 0 0 1 1.368.471l.276.265.095-.125a2.2 2.2 0 0 1 2.21-.52 1.7 1.7 0 0 1 .842.73 4.8 4.8 0 0 1 .304 2.379"/></svg>

<?xml version="1.0" encoding="UTF-8"?>
<svg width="24px" fill="#44739e" height="24px" viewBox="0 0 24 24" version="1.1" xmlns="http://www.w3.org/2000/svg" xmlns:xlink="http://www.w3.org/1999/xlink">
            <path d="M 21.911,5.521 A 4.658,4.658 0 0 0 18.97,2.226 C 18.26,1.981 18.42,1.985 11.97,1.99 6.812,1.99 5.875,2.005 5.575,2.07 A 4.6,4.6 0 0 0 2.044,5.8 C 2,6.067 1.993,7.845 2,12.2 c 0.015,5.579 0.025,6.054 0.1,6.335 a 4.582,4.582 0 0 0 1.167,2.055 4.374,4.374 0 0 0 2.868,1.378 c 0.371,0.04 2.316,0.049 6.25,0.04 5.684,-0.02 5.71,-0.02 6.12,-0.131 a 4.527,4.527 0 0 0 1.457,-0.641 4.6,4.6 0 0 0 1.953,-2.815 C 21.996,18.105 22,17.611 22,11.977 22,6.307 22,5.842 21.911,5.521 Z m -4.265,12.384 a 3.616,3.616 0 0 1 -4.1,2.024 13.72,13.72 0 0 1 -1.426,-0.649 c -0.192,-0.064 -0.373,0.113 -0.523,0.208 a 3.663,3.663 0 0 1 -1,0.426 3.6,3.6 0 0 1 -2.467,-6.722 4.011,4.011 0 0 1 3.376,0.1 3.472,3.472 0 0 1 -0.827,1.42 c -0.2,0.1 -0.727,-0.183 -0.98,-0.183 a 1.977,1.977 0 0 0 -1.881,1.663 1.945,1.945 0 0 0 1.263,2.022 c 0.46,0.177 1.43,0.2 1.71,-0.315 A 1.48,1.48 0 0 0 10.84,17.238 H 9.223 V 15.67 h 3.234 a 3.8,3.8 0 0 0 0.143,1.43 1.943,1.943 0 0 0 0.48,0.709 c 1.793,1.691 4.378,-1.145 2.519,-2.792 a 1.966,1.966 0 0 0 -0.9,-0.446 3.362,3.362 0 0 0 -1.332,0.2 L 12.559,13.392 V 13.34 a 3.584,3.584 0 0 1 5.094,4.565 z M 19.772,9.9 v 1.356 H 18.024 L 18.009,9.938 C 17.994,8.531 17.984,8.481 17.723,8.338 A 0.83,0.83 0 0 0 17,8.391 c -0.336,0.21 -0.356,0.285 -0.371,1.643 l -0.016,1.217 H 14.864 V 9.958 c 0,-1.186 -0.01,-1.3 -0.1,-1.447 -0.245,-0.406 -1.017,-0.275 -1.253,0.21 -0.089,0.191 -0.1,0.311 -0.1,1.369 v 1.157 h -1.373 c -1.522,0 -1.757,-0.035 -2.233,-0.315 A 2.2,2.2 0 0 1 8.993,9.951 2.981,2.981 0 0 1 8.853,8.968 l -0.03,-0.7 -0.105,0.176 c -0.06,0.1 -0.421,0.716 -0.8,1.377 A 12.285,12.285 0 0 1 7.106,11.133 0.446,0.446 0 0 1 6.55,11.163 C 6.496,11.113 5.95,10.206 5.344,9.145 A 12.852,12.852 0 0 1 4.244,7.064 0.417,0.417 0 0 1 4.375,6.775 C 4.505,6.644 4.52,6.644 5.217,6.644 h 0.706 l 0.395,0.681 a 4.166,4.166 0 0 0 0.461,0.707 c 0.11,0.044 0.22,-0.1 0.591,-0.757 L 7.721,6.643 h 2.03 l 0.34,-0.592 0.341,-0.595 0.01,0.481 a 5.872,5.872 0 0 0 0.04,0.59 c 0.025,0.106 0.055,0.116 0.421,0.116 h 0.4 v 1.6 h -0.866 l 0.03,0.421 c 0.055,0.776 0.24,0.976 0.927,0.976 h 0.41 v -3 h 1.6 v 0.231 c 0,0.125 0.016,0.22 0.04,0.21 l 0.381,-0.19 A 1.535,1.535 0 0 1 14.677,6.7 1.565,1.565 0 0 1 16.045,7.171 l 0.276,0.265 0.095,-0.125 a 2.2,2.2 0 0 1 2.21,-0.52 1.7,1.7 0 0 1 0.842,0.73 4.8,4.8 0 0 1 0.304,2.379 z"/>

</svg>
